src/images/icon-guarantee-flame.svg

<svg width="15" height="20" viewBox="0 0 15 20" fill="none" xmlns="http://www.w3.org/2000/svg">
<path d="M13.6926 10.3704C13.5154 9.97341 13.271 9.5825 12.9135 9.13098C12.0121 7.99765 11.7371 5.47038 11.734 5.44614C11.7218 5.32492 11.6363 5.22492 11.5232 5.18856C11.4071 5.1522 11.2818 5.18553 11.1993 5.27644C10.1238 6.47947 10.576 8.33704 10.8204 9.07947C10.8876 9.2825 10.961 9.52189 11.0129 9.76432C11.4101 11.7249 10.6432 12.6128 10.4629 12.7916C10.2887 12.8401 10.1696 12.8158 10.0596 12.6977C9.68067 12.2825 9.55539 10.9219 9.73262 9.14917C9.76931 8.78856 9.76012 8.46432 9.70817 8.16129C9.33442 5.98241 7.964 4.58477 7.61512 4.09462C6.65567 2.67644 6.5579 0.315833 6.55484 0.294621C6.55178 0.1825 6.48762 0.0825 6.38678 0.0340151C6.28901 -0.0144697 6.16984 -0.0084091 6.07817 0.0552273C4.47706 1.14311 4.61456 3.76432 4.83762 5.22795C4.88956 5.56735 4.9904 5.9128 5.16456 6.34917C5.78484 7.90977 5.04234 9.92492 5.03623 9.94311C5.03012 9.96129 5.02401 9.97644 5.02095 9.99462C4.92623 10.4916 4.76734 10.7886 4.59012 10.7886C4.57178 10.7886 4.55345 10.7855 4.53206 10.7795C4.31512 10.734 4.20206 10.5037 4.19901 10.3037C4.18678 7.71886 1.59262 6.84917 1.56512 6.84008C1.44901 6.80371 1.32067 6.83705 1.24123 6.93098C1.15873 7.02492 1.14345 7.15523 1.19845 7.26432C1.22901 7.32795 1.32678 7.60674 1.25956 8.59159C1.20151 9.47644 1.03956 10.3522 0.77984 11.1916C0.162618 13.2037 0.260395 15.1098 0.266507 15.2007C0.741126 20.3615 8.16325 21.2658 12.5682 18.3583C13.0509 18.0401 13.4451 17.6764 13.7354 17.2764C15.361 15.034 14.4046 11.9886 13.6926 10.3704ZM2.40237 15.3007C2.41154 15.4673 2.2832 15.6098 2.11515 15.6189H2.09681C1.93487 15.6189 1.80043 15.4946 1.79126 15.334C1.76376 14.8916 1.76987 14.428 1.80348 13.9249C1.8157 13.7583 1.96237 13.634 2.13043 13.6431C2.29848 13.6552 2.42681 13.8007 2.41459 13.9673C2.38095 14.4461 2.37487 14.8825 2.40237 15.3007ZM2.55206 12.6158C2.53373 12.7704 2.40234 12.8825 2.24956 12.8825C2.23734 12.8825 2.22512 12.8825 2.20984 12.8795C2.04484 12.8583 1.92567 12.7098 1.94401 12.5431L2.09067 11.3734C2.11206 11.2098 2.26178 11.0916 2.43289 11.1098C2.60095 11.131 2.72012 11.2825 2.69873 11.4492L2.55206 12.6158Z" fill="#FF6B09"/>
</svg>

<svg width="15" height="20" fill="none" xmlns="http://www.w3.org/2000/svg"><path d="M13.693 10.37c-.178-.397-.422-.787-.78-1.239-.9-1.133-1.176-3.66-1.179-3.685a.305.305 0 0 0-.21-.257.31.31 0 0 0-.325.087c-1.075 1.203-.623 3.061-.379 3.803.068.204.141.443.193.685.397 1.96-.37 2.849-.55 3.028-.174.048-.293.024-.403-.094-.38-.415-.505-1.776-.327-3.549.036-.36.027-.685-.025-.988-.374-2.179-1.744-3.576-2.093-4.066-.96-1.419-1.057-3.78-1.06-3.8a.305.305 0 0 0-.477-.24c-1.6 1.088-1.463 3.71-1.24 5.173.052.34.152.685.327 1.121.62 1.56-.123 3.576-.129 3.594-.006.018-.012.033-.015.052-.095.497-.254.794-.43.794a.212.212 0 0 1-.059-.01c-.217-.045-.33-.275-.333-.475-.012-2.585-2.606-3.455-2.634-3.464a.304.304 0 0 0-.324.091.298.298 0 0 0-.043.333c.031.064.129.343.062 1.328-.058.884-.22 1.76-.48 2.6A12.668 12.668 0 0 0 .267 15.2c.474 5.16 7.896 6.065 12.301 3.157a4.454 4.454 0 0 0 1.167-1.082c1.626-2.242.67-5.287-.042-6.906ZM2.403 15.3c.009.167-.12.31-.288.319h-.018a.304.304 0 0 1-.306-.285c-.027-.442-.021-.906.012-1.41a.308.308 0 0 1 .327-.28.305.305 0 0 1 .285.323c-.034.48-.04.915-.013 1.334Zm.15-2.684a.303.303 0 0 1-.303.267c-.013 0-.025 0-.04-.003a.306.306 0 0 1-.266-.337l.147-1.17a.308.308 0 0 1 .342-.263.304.304 0 0 1 .266.34l-.147 1.166Z" fill="#FF6B09"/></svg>
